packages/icons/svg/Fill/triangle-left.svg

<svg width="24" height="24" viewBox="0 0 24 24" fill="none" xmlns="http://www.w3.org/2000/svg">
<g id="Icon/Fill/triangle-left">
<path id="Mask" fill-rule="evenodd" clip-rule="evenodd" d="M13.544 18.001C13.073 18.001 12.609 17.844 12.241 17.54L7.142 13.326C6.734 12.99 6.5 12.506 6.5 12C6.5 11.494 6.734 11.01 7.141 10.674L12.241 6.46101C12.849 5.95701 13.716 5.85601 14.45 6.20101C15.098 6.50701 15.5 7.11401 15.5 7.78701V16.213C15.5 16.886 15.098 17.493 14.45 17.799C14.161 17.935 13.851 18.001 13.544 18.001Z" fill="#000000"/>
</g>
</svg>

<svg fill="none" height="24" viewBox="0 0 24 24" width="24" xmlns="http://www.w3.org/2000/svg"><path clip-rule="evenodd" d="m13.5439 18.0012c-.471 0-.935-.157-1.303-.461l-5.09904-4.214c-.408-.336-.642-.82-.642-1.326s.234-.99.641-1.326l5.10004-4.21295c.608-.504 1.475-.605 2.209-.26.648.306 1.05.913 1.05 1.586v8.42595c0 .673-.402 1.28-1.05 1.586-.289.136-.599.202-.906.202" fill="#6b7280" fill-rule="evenodd"/></svg>
